dist/img/icons_map/bonum_act.svg

<svg width="48" height="48" viewBox="0 0 48 48" fill="none" xmlns="http://www.w3.org/2000/svg">
<rect width="48" height="48" rx="24" fill="#8F9190"/>
<g clip-path="url(#clip0_1553_1914)">
<path d="M11.7309 23.9514H8.18371V22.1124H11.7309V23.9514ZM42 20.9403H41.2528H41.0444H41.0247C40.8478 20.9403 40.6708 21.0232 40.5764 21.1771L38.4489 24.6894L36.3213 21.1771C36.227 21.0232 36.05 20.9403 35.873 20.9403H35.6489C35.236 20.9403 34.9056 21.26 34.9056 21.6743V27.1047V27.8229V28.0597H35.1416H35.8494H35.8534C35.9792 28.0558 36.0854 27.9492 36.0854 27.8229V22.8741L37.8354 25.676C37.9652 25.8063 38.1067 25.9128 38.2837 25.9128H38.614C38.791 25.9128 38.9326 25.8063 39.0624 25.676L40.8124 22.8741V27.8229C40.8124 27.9532 40.9185 28.0597 41.0483 28.0597H41.7562C41.886 28.0597 41.9921 27.9532 41.9921 27.8229C42 25.5261 42 23.2332 42 20.9403ZM33.8399 20.9403H33.6039H32.8961H32.8921C32.7663 20.9442 32.6601 21.0508 32.6601 21.1771V26.8718H29.1129V21.1771C29.1129 21.0468 29.0067 20.9403 28.877 20.9403H28.1691C28.0393 20.9403 27.9331 21.0468 27.9331 21.1771V27.1047V27.3217V28.0558H28.6646H28.8848H33.1124C33.5253 28.0558 33.8438 27.7361 33.8438 27.3217C33.8399 25.1946 33.8399 23.0674 33.8399 20.9403ZM26.8635 20.9403H26.6275H25.9197H25.9157C25.7899 20.9442 25.6837 21.0508 25.6837 21.1771V26.2325L22.3607 21.1771C22.2545 20.9995 22.0657 20.9403 21.9124 20.9403H21.6882C21.2753 20.9403 20.9567 21.26 20.9567 21.6743V27.1047V27.8229V28.0597H21.1927H21.9006H21.9045C22.0303 28.0558 22.1365 27.9492 22.1365 27.8229V22.7912L25.4478 27.8229C25.5539 28.0005 25.7427 28.0597 25.8961 28.0597H26.132C26.5449 28.0597 26.8674 27.74 26.8674 27.3257C26.8635 25.1946 26.8635 23.0674 26.8635 20.9403ZM19.8871 20.9403C18.1607 20.9403 16.4343 20.9403 14.7079 20.9403C14.2949 20.9403 13.9764 21.26 13.9764 21.6743V27.1047V27.3217V28.0558H14.7079H14.9242H19.1517C19.5646 28.0558 19.8831 27.7361 19.8831 27.3217C19.8871 25.1946 19.8871 23.0674 19.8871 20.9403ZM18.7073 26.8718H15.1601V22.1242H18.7073V26.8718ZM7 28.0597H7.23596H7.95169H11.6719C12.3562 28.0597 12.9146 27.5151 12.9146 26.8481V25.6484C12.9146 24.9854 12.3601 24.4369 11.6719 24.4369V24.3895C12.3562 24.3895 12.9146 23.8449 12.9146 23.1779V22.144C12.9146 21.481 12.3601 20.9324 11.6719 20.9324H7.23596C7.10618 20.9324 7 21.0389 7 21.1692V27.0968V27.815C7 27.8229 7 28.0597 7 28.0597ZM34.5556 18.9828C32.609 15.4192 28.8376 13 24.5 13C20.1624 13 16.391 15.4192 14.4444 18.9828H15.8365C17.6573 16.1098 20.8545 14.2037 24.5 14.2037C28.1455 14.2037 31.3427 16.1098 33.1635 18.9828H34.5556ZM24.5 36C28.8376 36 32.609 33.5808 34.5556 30.0172H33.1635C31.3427 32.8902 28.1416 34.7963 24.5 34.7963C20.8545 34.7963 17.6573 32.8902 15.8365 30.0172H14.4444C16.391 33.5808 20.1624 36 24.5 36ZM11.7309 26.8837H8.18371V24.8907H11.7309V26.8837Z" fill="white"/>
</g>
<defs>
<clipPath id="clip0_1553_1914">
<rect width="35" height="23" fill="white" transform="translate(7 13)"/>
</clipPath>
</defs>
</svg>

<svg width="48" height="48" viewBox="0 0 48 48" fill="none" xmlns="http://www.w3.org/2000/svg"><rect width="48" height="48" rx="24" fill="#8F9190"/><g clip-path="url(#clip0_1553_1914)"><path d="M11.73 23.951H8.185v-1.839h3.547v1.84zM42 20.941h-.976a.523.523 0 00-.448.236L38.45 24.69l-2.128-3.512a.523.523 0 00-.448-.237h-.224a.732.732 0 00-.743.734v6.386h.947a.242.242 0 00.232-.237v-4.949l1.75 2.802c.13.13.272.237.449.237h.33c.177 0 .319-.107.448-.237l1.75-2.802v4.949c0 .13.107.237.236.237h.708c.13 0 .236-.107.236-.237.008-2.297.008-4.59.008-6.883zm-8.16 0h-.948a.242.242 0 00-.232.236v5.695h-3.547v-5.695a.237.237 0 00-.236-.237h-.708a.237.237 0 00-.236.237v6.879h5.179c.413 0 .732-.32.732-.734-.004-2.127-.004-4.255-.004-6.382zm-6.977 0h-.947a.242.242 0 00-.232.236v5.056l-3.323-5.056a.51.51 0 00-.449-.237h-.224a.722.722 0 00-.731.734v6.386h.947a.242.242 0 00.233-.237V22.79l3.31 5.032a.51.51 0 00.45.237h.235c.413 0 .735-.32.735-.734-.004-2.131-.004-4.259-.004-6.386zm-6.976 0h-5.18a.722.722 0 00-.73.733v6.382h5.175c.413 0 .731-.32.731-.734.004-2.127.004-4.255.004-6.382zm-1.18 5.93H15.16v-4.747h3.547v4.748zM7 28.06h4.672c.684 0 1.243-.545 1.243-1.212v-1.2c0-.663-.555-1.211-1.243-1.211v-.047c.684 0 1.243-.545 1.243-1.212v-1.034c0-.663-.555-1.212-1.243-1.212H7.236A.237.237 0 007 21.17v6.891zm27.556-9.077C32.609 15.419 28.838 13 24.5 13c-4.338 0-8.109 2.42-10.056 5.983h1.392c1.821-2.873 5.019-4.78 8.664-4.78 3.645 0 6.843 1.907 8.663 4.78h1.393zM24.5 36c4.338 0 8.109-2.42 10.056-5.983h-1.392c-1.821 2.873-5.022 4.78-8.664 4.78-3.645 0-6.843-1.907-8.664-4.78h-1.392C16.391 33.581 20.162 36 24.5 36zm-12.77-9.116H8.185V24.89h3.547v1.993z" fill="#fff"/></g><defs><clipPath id="clip0_1553_1914"><path fill="#fff" transform="translate(7 13)" d="M0 0h35v23H0z"/></clipPath></defs></svg>
